X:1
T:When the Saints go Marching-in
T:When The Saints Go Marching-In
T:Traditional
C:Traditional
Z:All Rights Reserved
L:1/4
M:4/4
K:F
V:1 treble 
%%MIDI program 40
V:1
 z F A B |:"F" c3 z | z F A B | c3 z | z F A B | c2 A2 | F2 A2 |"C7" G3 z | z A A G |"F" F3 F | %10
"F7" A2 c2 |"Bb" c B3 |"Bbm" z B A B |"F" c2"D7" A2 |"Gm7" F2"C7" G2 ||1"F" F3 z ||"C7" z F A B :|2 %17
"F" F4- || F z z2 |] %19

